icons/unlink-16.svg

<svg width="16" height="16" viewBox="0 0 16 16" fill="none" xmlns="http://www.w3.org/2000/svg">
<g clip-path="url(#clip0_8537_104217)">
<path d="M12.9143 5.91422C13.6953 5.13317 13.6953 3.86684 12.9143 3.08579C12.1332 2.30475 10.8669 2.30475 10.0858 3.08579L9.24909 3.92252C8.9562 4.21542 8.48133 4.21542 8.18844 3.92252C7.89554 3.62963 7.89554 3.15476 8.18844 2.86186L9.02517 2.02513C10.392 0.658299 12.6081 0.658299 13.9749 2.02513C15.3418 3.39197 15.3418 5.60805 13.9749 6.97488L13.7804 7.16943C13.4875 7.46232 13.0126 7.46232 12.7197 7.16942C12.4268 6.87653 12.4268 6.40166 12.7197 6.10876L12.9143 5.91422Z" fill="black"/>
<path d="M11.0438 9.39572C11.023 9.42329 11 9.44975 10.9749 9.47488C10.3447 10.1051 9.50624 10.583 8.6312 10.7384C7.74041 10.8967 6.77101 10.7207 6.02517 9.97488C5.73227 9.68199 5.73227 9.20711 6.02517 8.91422C6.31806 8.62133 6.79293 8.62133 7.08583 8.91422C7.41392 9.24231 7.8521 9.35335 8.36889 9.26156C8.86211 9.17396 9.38673 8.90237 9.814 8.51025L8.56739 7.61268C8.56397 7.61027 8.56057 7.60782 8.55718 7.60534L8.26173 7.39261C7.32189 6.79591 6.27757 6.89401 5.58579 7.58579L3.08579 10.0858C2.30474 10.8668 2.30474 12.1332 3.08579 12.9142C3.86683 13.6953 5.13316 13.6953 5.91421 12.9142L6.75095 12.0775C7.04384 11.7846 7.51871 11.7846 7.81161 12.0775C8.1045 12.3704 8.1045 12.8453 7.81161 13.1381L6.97487 13.9749C5.60804 15.3417 3.39196 15.3417 2.02513 13.9749C0.658291 12.608 0.658291 10.392 2.02513 9.02513L4.52513 6.52513C4.92971 6.12055 5.39105 5.84072 5.87874 5.67686L2.31179 3.10865C1.97564 2.86662 1.89934 2.39792 2.14136 2.06177C2.38339 1.72562 2.8521 1.64932 3.18824 1.89135L9.11851 6.16114C9.23256 6.23542 9.34415 6.3157 9.45281 6.40183L15.6882 10.8913C16.0244 11.1334 16.1007 11.6021 15.8587 11.9382C15.6166 12.2744 15.1479 12.3507 14.8118 12.1087L11.0438 9.39572Z" fill="black"/>
</g>
<defs>
<clipPath id="clip0_8537_104217">
<rect width="16" height="16" fill="white"/>
</clipPath>
</defs>
</svg>

<svg xmlns="http://www.w3.org/2000/svg" width="16" height="16" viewBox="0 0 16 16"><path d="M12.914 5.914a2 2 0 00-2.828-2.828l-.837.837a.75.75 0 11-1.06-1.061l.836-.837a3.5 3.5 0 114.95 4.95l-.195.194a.75.75 0 01-1.06-1.06l.194-.195zm-1.87 3.482a.759.759 0 01-.07.079c-.63.63-1.468 1.108-2.343 1.263-.89.159-1.86-.017-2.606-.763a.75.75 0 111.06-1.06c.329.327.767.438 1.284.347.493-.088 1.018-.36 1.445-.752l-1.247-.897a.709.709 0 01-.01-.008l-.295-.212c-.94-.597-1.984-.499-2.676.193l-2.5 2.5a2 2 0 102.828 2.828l.837-.836a.75.75 0 011.06 1.06l-.836.837a3.5 3.5 0 01-4.95-4.95l2.5-2.5a3.472 3.472 0 011.354-.848L2.312 3.109a.75.75 0 01.876-1.218l5.93 4.27c.115.074.226.155.335.24l6.235 4.49a.75.75 0 01-.876 1.218l-3.768-2.713z"/></svg>
